X:3
T:No.103 Within a Mile of Dublin
M:4/4
L:1/8
C:reel
K:G
dc||ADDE FEFG|Addd cABG|
ADDE FEFG|[1ABcA G2Bd:|[2ABcA G2FG||
Addc AcGc|Adde fdec|
Addc AcGc|ABcA G2FG|
Addc AcGc|Add^c defg|
afge fded|cAGF GABd:|
